X: 25483
T: Marco's
R: reel
M: 4/4
K: Dmajor
F3G FEDF|A2 GB AGFA|dFAd FAdA|cB B2 cA B2|E3F GFGA|
cE E2 c3B|1 A3B AGFE|DFdB A3G:|2 A2 ge cABc|(3Bcd dc d2 ag||
f2 f2 fedf|edce d2 d2|(3FGA dF AdFd|cB B2 cA B2|
g3a gfeg|fedf e3c|ABcd efge|dABd ABde|
f2 f2 fedf|edce d2 d2|(3FGA dF AdFd|cB B2 cA B2|
E3F GFGA|cE E2 c3B|A2 ge cABc|(3Bcd dc dBAG||

